X:1
T:Quatour
T:Quatuor 
T:pour instruments à cordes I
T:Maurice Ravel
C:Maurice Ravel
%%score [ ( 1 2 ) ( 3 4 ) ( 5 6 ) ( 7 8 ) ]
L:1/8
Q:1/4=120
M:4/4
K:F
V:1 treble nm="Violon I"
V:2 treble 
V:3 treble nm="Violon II"
V:4 treble 
V:5 alto nm="Alto"
V:6 alto 
V:7 bass nm="Violoncelle"
V:8 bass 
V:1
!p!"^Allegro moderato - Très doux." (A2 GA) (E2 D2) | (AFAe!<(! d4) | (f2 ea) (g2 fe) | %3
 (da)!<)!!>(! c'6!>)! |!pp! (_e'2 be') (f2 _e2) | (_a_d)(df) (B2 _A2) |!<(! (_Ac) F2 (Ac) F2-!<)! | %7
!>(! !tenuto!F(D_EF G2) z2!>)! |!pp!!<(! (d'2 a2 g2 f2)!<)! |!>(! (e2 de) (fg a2)!>)! | %10
!<(! (A,2 =B,2 C2 D2)!<)! |!>(! (C4 =B,2) F2!>)! |!p!!<(! (d'2 a2 g2 f2) | (A,2 =B,2 C2 D2)!<)! | %14
!f!!>(! (d'2 a2 g2 f2) | (=B,2 C2 D2 E2)!>)! |!p!!<(! (c'2 a2) (e2 d2) | (c'ac'e') d'4!<)! | %18
!mf!!>(! (f'2 e'a') (g'2 f'e') | (d'2 c'f') (d'2 c'b)!>)! |!p!!>(! a6!>)! f2 |!>(! a6 f2!>)! | %22
!>(! a6 f2!>)! |!pp!"^1""_express." (a3 g) (a3 e) | (efad') (a3 g) | (a3 g) (efad') | %26
 (c'2 =bc') (^g2 a2) |!pp! !/!c'!/!=b!/!^g!/!^G (^F/G/F/E/) (E/F/E/D/) | %28
 !//!F4!p! (^F/^G/F/E/) (E/F/E/D/) | !//!D4 C z z2 |!mf!!<(! ^G,4!<)!!>(! !courtesy!=C4!>)! | %31
!mf!!>(! (^G,/B,/=B,/^C/) (B,/C/D/E/) (D/E/F/G/) (F/G/_A/B/)!>)! |!p!!<(! =B4!<)!!>(! ^E4!>)! | %33
!p!!>(! (^E/^^F/^G/^A/) (G/A/=B/^c/) (B/c/d/=e/) (d/e/=f/=g/)!>)! | %34
"^2"!pp! (e'2 ^d'e') ((=b2 ^a2)) | (e'^d')(d'e') (=b2 ^a2) |!<(! e'2 (^d'e') d'2 (3(^c'd'e') | %37
"^accelerando" e'2 (^d'e') d'2 (3(^c'd'e')!<)! | %38
!ff!"^Allegro"!>(! e'/^f'/e'/=b/ b/ z/ z g/b/g/e/ e/ z/ z | %39
 =B/^c/B/G/ G/ z/ z E/^F/E/=B,/!>)!!mf!!<(! E2!<)! |!>(! vG2!>)! z2 z2!<(! E2!<)! | %41
!>(! G2!>)! z2 z2!<(! E2!<)! |"^cédez"!>(! (G4 D4)!>)! |!p!"^Io Tempo"!>(! A4!>)! z4 |"^3" z8 | %45
!mp! (A2 GA) (E2 G2) | A2 z2 z4 |!p! (a2 ga) (e2 g2) | ((ag))(ga) (e2 g2) | a2 z2 z4 | %50
 z2!p!"^pizz." [Ae]2 [Aa]2 z2 | z2 [Ae]2 [Aa]2 z2 | z2 [Aa]2 z2 [Aa]2 |"^4" z2 A2"^suivez" z4 | %54
!pp!"^arco""_très expr." (a2 e'4) (3(d'e'f') | (e'2 d'c') (b2 c'd') | e'6 (3(d'e'f') | %57
 (e'2 d'c') (b2 c'd') | d'4- d'(bc'd') | (d'2 ba) (!tenuto!f2 !tenuto!g2) | a4- a!<(!(fga)!<)! | %61
!>(! (a6 f2)!>)! |!p! (!>!e6 d2 | c2) (A4 G2) |!pp! (!/-!A2 F2) (!/-!A2 F2) | %65
 (!/-!A3 F3) (!//-!G E) | A2 z2 z4 | z8 |"^5"!mf! A6 (3(GAB) | A6 (3(GAB) | (A2 GF) (_E2 FG) | %71
 A6 (3(GAB) | A6!>(! (3(GAB)!>)! |!p! (c2 Bc) (G2 F2) | (cB)(Bc) (G2 F2) | %75
!<(! (c2 B_A) (B2 c!courtesy!=d)!<)! |!mf! _e6 (3(_def) | _e6 (3(_def) | %78
!>(! (_e2 _dB) (d2 e_g)!>)! |"^6"!pp! (^c'2 =bc') (^g2 ^f2) |!<(! (^c'^f=b=e') (c'2 b^g) | %81
 ^f2 (^gf) (e^c)!<)! (=B2- |!>(! B^c) ^F2- F(^G^C=B,)!>)! |!ppp! A,2 z2 z4 | %84
!p!!>(! !/!A!/!c!/!d!/!f!>)!!pp! !/!c'!/!a!/!f!/!a | !/!c'!/!a!/!f!/!a !/!c'!/!a!/!f!/!a | %86
 !/!c'!/!a!/!f!/!a !/!c'!/!a!/!f!/!a | !/!c'!/!a!/!f!/!a !/!f!/!d!/!c!/!d | %88
!<(! !/!c!/!A!/!F!/!A !/!F!/!A!/!F!/!D!<)! |!>(! !/!F!/!A!/!F!/!D !/!F!/!A!/!F!/!D!>)! | %90
!ppp!"^poco cresc." !/!_A!/!_A,!/!A,!/!_C !/!C!/!_E!/!E!/!A |"^7" z4 z2!pp! (_e'2- | %92
 e'2 _c'2 b2 _a2) | (g2 fg) (_ab) _c'2 | (_e'6 _c'2) |!<(! (_e'6 _c'2)!<)! | %96
!>(! (_e'2 f'2-) (3f'2 (!tenuto!e'2 !tenuto!f'2!>)! | _g'6) z2 | %98
 z2!mp! (!tenuto!u_e2 !tenuto!_g2) z2 | z2!p! (!tenuto!u_E2 !tenuto!_G2) z2 | z8 |"^8" z8 | z8 | %103
 z8 | z8 | z!p!!<(! (3(^D/=B/^f/)!<)!!>(! (3(f/B/D/)!>)!.D z2!pp! u^d2 | ^f6!<(! (3(^ef^g) | %107
 ^f2!<)!!>(! (a4 f2)!>)! |!>(! (^e2 ^d2)!>)! z!p!!<(! (3(^F/^c/a/)!<)!!>(! (3(a/c/F/)!>)!F | z8 | %110
!mp!!<(! (!//-!E2 C2) (!//-!^F2 C2)!<)! | G/ z/ z z2 z4 | %112
!mf!!<(! (!///-!^A ^F) (!///-!^B F)!<)! ^c z z2 | %113
!p!"_subito""^crescendo e accelerando poco a poco" (c'2 =bc') (b2 (3abc') | %114
 (_e'2 d'e') (d'2 (3c'd'e') | (_e'2 d'e') (d'2 (3c'd'e') |"^9" _e'2 (3(c'd'e') e'2 (3(c'd'e') | %117
!ff!!<(! _e'2 (3(c'd'e') e'2 (3(c'd'e')!<)! |!fff!"^Poco meno vivo"{Fa} a'2 (g'a') d'2 (c'd') | %119
 a2"^un poco dim." (ga) d2 (cd) | A2 (GA)"^poco rit." D z z2 | %121
!p!!<(! (^A,/E/^A/e/)!<)!!f!!>(! (e/A/E/A,/)!>)! A, z z2 | z8 | %123
!p!!<(! (^A,/E/^A/e/)!<)!!f!!>(! (e/A/E/A,/)!>)! A, z z2 | z8 | %125
!mf!"^pizz." [^A,E^Ae]2 z2 z2!mp! [A,E]2 | z4!mp!"^arco"!>(! (!tenuto!uE4 | %127
 !tenuto!^F4 !tenuto!^G4)!>)! |"^10"!pp!"^Io Tempo" (A2 GA) (E2 D2) | (AFAe!<(! d4) | %130
 (f2 ea) (g2 fe) | (da)!<)!!>(! c'6!>)! |!pp! (c'2 bc') (e2 d2) | (gc)(ce) (A2 G2) | %134
!<(! (G=B) E2 (GB) E2-!<)! |!>(! !tenuto!E(^CDE) ^F2 z2!>)! | %136
!pp!"_express."!<(! (_g'2 _e'2 d'2 c'2)!<)! |!>(!"^cresc." (=b2 ab) (c'd') _e'2!>)! | %138
!<(! (A,4 C4)!<)! |!>(! (_E4 C4)!>)! |!p!!<(! (_g'2 _e'2 d'2 c'2) | (A,2 =B,2) C4!<)! | %142
!mf!!>(! (_e'2 c'2 =b2 a2) | (d'2 !courtesy!_b2 a2 g2)!>)! |!pp! (c'2 a2)!<(! (e2 d2) | %145
 (afc'e') d'4!<)! |!mf!!>(! (f'2 e'a') (g'2 f'e') | (d'2 c'f') (d'2 c'b)!>)! | %148
!p!!>(!"^dim." a6!>)! f2 |!>(! a6!>)! f2 |!>(! a6!>)! f2 |"^11"!pp!"_très express." (a3 g) (a3 e) | %152
 (efad') (a3 g) | (a3 e) (efad') | (c'2 =bc') (^g2 a2) | %155
!pp!"_léger"{/_d} !/!c'!/!g !/!c!/!F (_F/G/F/_E/) (E/F/E/_D/) | %156
 !//!_E2 !//!=E2!p! (F/_G/F/_E/) (E/F/E/_D/) | !//!_D4 C z z2 |!mf!!<(! G,4!<)!!>(! _C4!>)! | %159
!mf!!>(! (G,/A,/B,/C/) (B,/C/_D/_E/) (^C/^D/=E/^F/) (E/F/G/A/)!>)! |!p!!<(! B4!<)!!>(! =E4!>)! | %161
!p!!>(! (E/^F/G/A/) (G/A/B/c/) (B/c/_d/_e/) (d/e/=e/g/)!>)! | %162
"^12"!pp! _e'2 (!courtesy!=d'e') (b2 _a2) | (_e'd')(d'e') (b2 _a2) | %164
"^accelerando"!<(! _e'2 (d'e') d'2 (3(^c'd'e') | _e'2 (d'e') d'2 (3(^c'd'e')!<)! | %166
!ff!"^Allegro"!>(! _e'/f'/e'/_c'/ c'/ z/ z _a/c'/a/f/ f/ z/ z | %167
 _e/f/e/_c/ c/ z/ z G/=B/G/_E/!>)!!mf!!<(! uG2!<)! |!>(! v_B2!>)! z2 z2!<(! G2!<)! | %169
!>(! B2!>)! z2 z2!<(! G2!<)! |"^cédez"!>(! (B4 A4)!>)! |!p!"^Io Tempo" c4 z4 |"^13" z8 | %173
!mp! (c2 Bc G2 B2 | c2) z2 z4 |!pp! (c'2 bc' g2 b2) | (c'b)(bc') (g2 b2) | c'2 (bc') g2 (fg) | %178
!<(! c2 (Bc) G2 (FG)!<)! |!p!"_sub." !tenuto!D z"^pizz." [Ae]2 [Aa]2 z2 | z2 [Ae]2 [Aa]2 z2 | %181
 z2!mf! [Aa]2 z2!p! [Aa]2 | z2 A2"^rit." z4 |!pp!"^arco""^a Tempo" (a2 e'4) (3(d'e'f') | %184
 (e'2 d'c') (b2 c'd') | e'6 (3(d'e'f') | (e'2 d'c') (b2 c'd') | d'4- d'(bc'd') | %188
 (d'2 ba) (!tenuto!f2 !tenuto!g2) | a4- a!<(!(fga)!<)! |!>(! (a6 e2)!>)! |!p! (g6 f2 | %192
 c2) (A4 G2) | (g6 f2 | c2) (A4 G2) |"^14" (g6 f2) | (g4 f2)!<(! (g2-!<)! | %197
!p! g2 !tenuto!F2 !tenuto!G4) |!>(! (F2"^cédez légèremt" !tenuto!G4 !tenuto!_A2- | %199
 A4 !tenuto!=A4)!>)! |!pp!"^un peu plus lent" (^A2 ^GA) (^E2 G2) | (^A^G)(GA) (^E2 G2) | %202
!<(! (^A2 ^G^E) (G2 A^c)!<)! |!mp!"^rall."!<(! ^d6 (3(^cd^e) | %204
"^jusqu'à la fin." ^d6 (3(^cd^e)!<)! |!mf! (^d2 ^c=B)!>(! (c2 d^e) | (^f2 e^c) (e2 fa) | %207
 (^c'2 =ba)!>)! (b2 c'=f') |!pp!"^Lent"!<(! (g'2 f'g')!<)!!>(! (c'2 b2)!>)! | %209
!<(! (g'f')"^rall."(f'g')!<)!!>(! (c'2 b2)!>)! |!>(! (g'4 f'2 a2)!>)! |!pp!!>(! (!>!a4 g2 a2)!>)! | %212
!ppp! c'8 |] %213
V:2
 x8 | x8 | x8 | x8 | x8 | x8 | x8 | x8 | x8 | x8 | x8 | x8 | x8 | x8 | x8 | x8 | x8 | x8 | x8 | %19
 x8 | x8 | x8 | x8 | x8 | x8 | x8 | x8 | x8 | x8 | x8 | x8 | x8 | x8 | x8 | x8 | x8 | x8 | x8 | %38
 x8 | x8 | x8 | x8 | x8 | x8 | x8 | x8 | x8 | x8 | x8 | x8 | x8 | x8 | x8 | x8 | x8 | x8 | x8 | %57
 x8 | x8 | x8 | x8 | x8 | x8 | x8 | x8 | x8 | x8 | x8 | x8 | x8 | x8 | x8 | x8 | x8 | x8 | x8 | %76
 x8 | x8 | x8 | x8 | x8 | x8 | x8 | x8 | x8 | x8 | x8 | x8 | x8 | x8 | x8 | x8 | x8 | x8 | x8 | %95
 x8 | x8 | x8 | x8 | x8 | x8 | x8 | x8 | x8 | x8 | x8 | x8 | x8 | x8 | x8 | x8 | x8 | x8 | x8 | %114
 x8 | x8 | x8 | x8 | x8 | x8 | x8 | x8 | x8 | x8 | x8 | x8 | x8 | x8 | x8 | x8 | x8 | x8 | x8 | %133
 x8 | x8 | x8 | x8 | x8 | x8 | x8 | x8 | x8 | x8 | x8 | x8 | x8 | x8 | x8 | x8 | x8 | x8 | x8 | %152
 x8 | x8 | x8 | x8 | x8 | x8 | x8 | x8 | x8 | x8 | x8 | x8 | x8 | x8 | x8 | x8 | x8 | x8 | x8 | %171
 x8 | x8 | x8 | x8 | x8 | x8 | x8 | x8 | x8 | x8 | x8 | x8 | x8 | x8 | x8 | x8 | x8 | x8 | x8 | %190
 x8 | x8 | x8 | x8 | x8 | x8 | x8 | x8 | x8 | x8 | x8 | x8 | x8 | x8 | x8 | x8 | x8 | x8 | x8 | %209
 x8 | x8 | =B8 | x8 |] %213
V:3
!p! (A,2 B,2 C2 D2 | E2 F2!<(! G2 A2 | B2 c2 d2 e2 | f2!<)!!>(! g2) (vda) ug2!>)! | %4
!pp! (f2 _e2 c2 B2) | (_A2 G2 F2 _D2) |!<(! (D2 C2) (_E2 C2)!<)! |!>(! (B,2 _A,2 B,4)!>)! | %8
!pp!!<(! (A,2 =B,2 C2 D2)!<)! |!>(! (C4 B,2) F2!>)! |"_express."!<(! (d'2 a2 g2 f2)!<)! | %11
!>(! (e2 de) (fg) a2!>)! |!p!!<(! (A,2 =B,2 C2 D2) | (d'2 a2 g2 f2)!<)! |!f!!>(! (A,2 =B,2 C2 D2) | %15
 (d'2 a2 g2 f2)!>)! |!p!!<(! (A2 F2) A4 | ([EA]2 F2 G2 A2)!<)! |!mf!!>(! (B2 c2 d2 e2) | %19
 (f2 g2 a2 e2)!>)! | z2!p! (!>!=B2 ^c4) | z2 (!>!=B2 ^c4) | z2 (!>!=B2 ^c4) | %23
!pp! (^C/^D/E/^F/) (E/F/G/A/) (G/A/B/=c/) (B/c/_d/_e/) | %24
 (=d/=e/d/A/) (D/E/D/A,/) (^C/^D/E/^F/) (E/F/G/A/) | %25
 (G/A/B/c/) (B/c/_d/_e/) (=d/=e/d/A/) (D/E/D/A,/) | %26
 (F/G/F/G/) (_A/c/A/c/) (^G/=A/=B/c/) (B/c/d/^d/) | %27
!pp! (^f/^g/f/e/) (e/f/e/d/) !/![Dd]!/!D!/![^G,D]!/!G, | %28
 (C/D/C/=B,/) (B,/C/B,/A,/)!mf!"_express." (C3 B,) | (C3 ^G,)!<(! (G,A,CF)!<)! | %30
!f!"^4e Corde"!<(! (E2 DE)!<)!!>(! (=B,2 (3A,DE)!>)! | E2 z2 z4 | %32
!mf!!<(! (e2 de)!<)!!>(! (=B2 (3Acd)!>)! | e2 z2 z4 |!pp! [Ee]4 [E^c]4 | [Ee]4 [E^c]4 | %36
!<(! !///!e2 !///!^f2 !///!!courtesy!=g2 !///!f2 | !///!^a2 !///!=a2 !///!^g2 !///!=g2!<)! | %38
!ff!!>(! [Ge=b]2 b/^c'/b/g/ g/ z/ z e/^f/e/=B/ | %39
 =B/ z/ z G/B/G/E/ E/!>)! z/ z!mf!!<(! (u=B,/^C/B,/C/)!<)! | %40
!>(! (vD/E/D/E/ D/E/D/E/ D/E/D/^C/)!>)!!<(! (=B,/C/B,/C/)!<)! | %41
!>(! (D/E/D/E/ D/E/D/E/ D/E/D/^C/)!>)!!<(! (=B,/C/B,/C/)!<)! |!>(! (D4 !courtesy!_B,4)!>)! | %43
!p!!>(! ^C4!>)! z4 | z8 |!mp! (^C2 !courtesy!_B,2 ^G,2 B,2 | ^C2) z2 z4 | %47
!p! (^c2 !courtesy!_B2 ^G2 B2) | (^c2 B2 ^G2 B2) | %49
!p! (.^c!tenuto!.A!tenuto!.A!tenuto!.A !tenuto!.A!tenuto!.A)!>(! (3(GAB)!>)! | %50
 (!tenuto!.A!tenuto!.A!tenuto!.A!tenuto!.A !tenuto!.A!tenuto!.A)!>(! (3((GAB))!>)! | %51
 (!tenuto!.A!tenuto!.A!tenuto!.A!tenuto!.A !tenuto!.A!tenuto!.A)!>(! (3(((GAB)))!>)! | %52
 (!tenuto!.A!tenuto!.A!tenuto!.A!tenuto!.A) (!tenuto!.A!tenuto!.A!tenuto!.A!tenuto!.A) | %53
 (!tenuto!.A!tenuto!.A!>(!!tenuto!.A!tenuto!.A)"^cédez" (!tenuto!.A!tenuto!.A!tenuto!.A!tenuto!.A)!>)! | %54
!pp! (!/-!A2 F2) (!/-!A2 F2) | (!/-!A3 F3) (!//-!G E) | (!/-!A2 F2) (!/-!A2 F2) | %57
 (!/-!A3 F3) (!//-!G E) | (!/-!G2 _E2) (!/-!G2 E2) | (!/-!G2 _E2) (!/-!A2 E2) | %60
 (=B,/F/A/f/) (f/A/F/B,/) (B,/F/A/f/) (f/A/F/B,/) | (^C/G/A/f/) (f/A/G/C/) (C/G/A/f/) (f/A/G/C/) | %62
!p!"^4e Corde""_express." (A,2 E4) (3(DEF) | (E2 DC) (B,2 CD) |!pp! E6 (3(DEF) | (E2 DC) (B,2 CD) | %66
 E6 (3(DEF) | E6 (3(DEF) |!mf!"_soutenu" D6 C2 | D6 C2 | D6 C2 |"^en dehors" (D2 CD) (A,2 C2) | %72
!<(! (DB,FA)!<)!!>(! (G2 FD)!>)! | C6 (3(B,C=D) | C6 (3(B,CD) |!<(! C4 (D2 C2)!<)! | %76
!mf! [B,B]6 [_A,_A]2 | [B,B]6 [_A,_A]2 |!>(! [B,B]4 ([_A,_A]2 [B,B]2)!>)! |!pp! =D6 (3(^CDE) | %80
!<(! D6 (3(^CDE) | D6!<)! (3(^CDE) |!>(! D8!>)! |!ppp!!<(! !/!A,!/!C!/!D!/!F !/!D!/!F!/!A!/!c!<)! | %84
!>(! (D/F/)(F/A/) (A/c/)(c/d/)!>)!!pp! !/!f!/!d!/!c!/!d | !/!f!/!d!/!c!/!d !/!f!/!d!/!c!/!d | %86
 !/!f!/!d!/!c!/!d !/!f!/!d!/!c!/!d | !/!f!/!d!/!c!/!d !/!c!/!A!/!F!/!A | %88
!<(! !/!F!/!D!/!C!/!D !/!C!/!D!/!C!/!A,!<)! |!>(! !/!C!/!D!/!C!/!A, !/!C!/!D!/!C!/!A,!>)! | %90
!ppp!"^poco cresc." (_A,/_B,/_C/_D/) (C/D/_E/F/) (E/F/=G/_A/) (G/A/B/_c/) | %91
!p!!>(! (G/_A/B/_c/) (B/c/_d/_e/)!>)!!ppp! !/!f!/!e!/!c!/!e | !/!f!/!_e!/!_c!/!e !/!f!/!e!/!c!/!e | %93
 !/!g!/!_e!/!_c!/!e !/!f!/!e!/!c!/!e | !/!f!/!_e!/!_c!/!e !/!f!/!e!/!c!/!e | %95
!<(! !/!f!/!_e!/!_c!/!_A !/!F!/!A!/!F!/!_E!<)! |!>(! !/!_E!/!F!/!E!/!_C !/!E!/!F!/!E!/!C!>)! | %97
!pp!!<(! (=A,/=C/A,/C/)!<)!!>(! (=B,/^D/B,/D/)!>)!"^simile" (A,/C/A,/C/) (B,/D/B,/D/) | %98
 (A,/C/A,/C/) (=B,/^D/B,/D/) (A,/C/A,/C/) (B,/D/B,/D/) | %99
 (A,/C/A,/C/) (=B,/^D/B,/D/) (A,/C/A,/C/) (B,/D/B,/D/) | %100
!<(! (A,/C/A,/C/)!<)!!>(! (=B,/^D/B,/D/) (!/-!A,2 C2)!>)! |!p! (!//-!=B,2 A,2) (!//-!B,2 A,2) | %102
 (!//-!=B,2 A,2) (!//-!B,2 A,2) |!<(! (!//-!C2 A,2) (!//-!^C2 A,2)!<)! | %104
!>(! (!///-!=D A,) (!///-!^C A,) (!///-!=C A,) (!///-!=B, A,)!>)! | %105
 (!//-!=B,2 A,2) (!//-!B,2 A,2) | (!//-!=B,2 A,2)!<(! (!//-!C2 A,2) | %107
 (!//-!^C2 A,2)!<)!!>(! (!//-!=D2 A,2)!>)! |!>(! (!//-!^C2 A,2)!>)! (!//-!C2 A,2) | %109
!p! (!//-!^C2 A,2) (!//-!^D2 A,2) | E/ z/ z z2 z4 |!mp!!<(! (!//-!G2 _E2) (!//-!A2 E2)!<)! | %112
!mf! [^D^A^f]2!<(! (3(^ef^g) =a2 (3(ga=b)!<)! |!p!"_subito" !///!e2 !///!^d6 | %114
 (3[^F^f][Ff][Ff] [Ff]2 (3[Ff][Ff][Ff] [Ff]2 | (3[^F^f][Ff][Ff] [Ff]2 (3[Ff][Ff][Ff] [Ff]2 | %116
 (3[^F^f][Ff][Ff] (3[Ff][Ff][Ff] (3[Ff][Ff][Ff] (3[Ff][Ff][Ff] | %117
!ff!!<(! (3[^F^f][Ff][Ff] (3[Ff][Ff][Ff] (3[Ff][Ff][Ff] (3[Ff][Ff][Ff]!<)! | %118
!fff! ([^A,E^Ae]/[Ae]/)([Ae]/[A,E]/) ([A,E]/[Ae]/)([Ae]/[A,E]/) ([A,E]/[Ae]/)([Ae]/[A,E]/) ([A,E]/[Ae]/)([Ae]/[A,E]/) | %119
 ([^A,E]/[^Ae]/)([Ae]/[A,E]/) ([A,E]/[Ae]/)([Ae]/[A,E]/) ([A,E]/[EA]/)([EA]/[A,E]/) ([A,E]/[EA]/)([EA]/[A,E]/) | %120
 (^A,/E/)(E/A,/) (A,/E/)(E/A,/)!f!"^4e Corde""_vibrato"!<(! D2 (CD)!<)! |!>(! =A,4- A,(G,CD)!>)! | %122
!<(! D4 (C2 D2)!<)! |!>(! (A,6!>)! G,2- | G,2)!<(! (C4 D2-)!<)! | %125
!mf!!>(! D2 (!tenuto!C2 !tenuto!D4)!>)! |!mp! (!tenuto!C2 !tenuto!D4)!>(! (!tenuto!C2 | %127
 !tenuto!D4) (!tenuto!C2 !tenuto!D2)!>)! |!pp! (A,2 B,2 C2 D2) | (E2 F2!<(! G2 A2) | %130
 (B2 c2 d2 e2) | (f2 g2)!<)!!>(! (da) g2!>)! |!pp! (e2 d2 =B2 A2) | (G2 ^F2 E2 C2) | %134
!<(! (^C2 =B,2) (D2 B,2)!<)! |!>(! (A,2 =B,2) A,4!>)! |!pp!!<(! (A,4 C4)!<)! |!>(! (_E4 C4)!>)! | %138
"_express."!8va(!!<(! (_g'2 _e'2 d'2 c'2)!<)! |!>(! (=b2 ab) (c'd' _e'2)!8va)!!>)! | %140
!p!!<(! (A,2 =B,2) C4 |!8va(! (_g'2 _e'2 d'2 c'2)!<)!!8va)! |!mf!!>(! A,8 | B,4 [Be]4!>)! | %144
!pp! [Ae]4!<(! A4 | (E2 F2 G2 A2)!<)! |!mf!!>(! (B2 c2 d2 e2) | (f2 g2 a2 e2)!>)! | %148
 z2!p! (!>!=B2 ^c4) | z2 (!>!=B2 ^c4) | z2 (!>!=B2 ^c4) | %151
!pp!"_léger" (^C/^D/E/^F/) (E/F/G/A/) (G/A/_B/=c/) (B/c/_d/_e/) | %152
 (=d/e/d/A/) (D/E/D/A,/) (^C/^D/E/^F/) (E/F/G/A/) | %153
 (G/A/B/c/) (B/c/_d/_e/) (=d/=e/d/A/) (D/E/D/A,/) | (D/E/F/G/) (F/G/F/G/) (^G/A/=B/c/) (B/c/d/e/) | %155
!p!"_expr. et en dehors" (f/g/f/_e/) (e/f/e/_d/) !/!c!/!G !//!G,2 | %156
 (C/_D/C/B,/) (B,/C/B,/_A,/)!mf!"_express." (C3 B,) | (C3 B,)!<(! (G,_A,CF)!<)! | %158
!mf!"^4e Corde"!<(! (_E2 _DE)!<)!!>(! (B,2 (3_A,=DE)!>)! | _E2 z2 z4 | %160
!p!!<(! (_e2 _de)!<)!!>(! (B2 (3_A_cd)!>)! | _e2 z2 z4 |!pp! [_C_c]8 | [_C_c]8 | %164
!<(! !///!f2 !///!_g2 !///!=g2 !///!_a2 | !///!g2 !///!_a2 !///!=a2 !///!b2!<)! | %166
!ff!!>(! [F_e_c']2 c'/_e'/c'/_a/ a/ z/ z f/a/f/e/ | %167
 _e/ z/ z _c/_d/c/=G/ G/!>)! z/ z!<(! (u=D/=E/D/E/)!<)! | %168
!>(! (vF/G/F/G/ F/G/F/G/ F/G/F/E/)!>)!!<(! (D/E/D/E/)!<)! | %169
!>(! (F/G/F/G/ F/G/F/G/ F/G/F/E/)!>)!!<(! (D/E/D/E/)!<)! |!>(! (F4 _D4)!>)! |!p! E4 z4 | z8 | %173
!mp! (E2 F2 G2 F2 | E2) z2 z4 |!pp! (e2 ^c2 =B2 c2) | (e2 ^c2 =B2 c2) | (e2 ^c2 =B2 _B2) | %178
!<(! (E2 ^C2 =B,2 _B,2)!<)! |!p!"_sub." (.A.A.A.A .A.A) (3(((!>!GAB))) | %180
 (.A.A.A.A .A.A) (3((((!>!GAB)))) |!<(! (.A.A.A.A!<)!!>(! .A.A.A.A) | (.A.A.A.A .A.A.A.A)!>)! | %183
!pp! (!/-!A2 F2) (!/-!A2 F2) | (!/-!A3 F3) (!//-!G E) | (!/-!A2 F2) (!/-!A2 F2) | %186
 (!/-!A3 F3) (!//-!G E) | (!/-!G2 _E2) (!/-!G2 E2) | (!/-!G2 _E2) (!/-!A2 E2) | %189
 (=B,/F/A/f/) (f/A/F/B,/)!<(! (B,/F/A/f/) (f/A/F/B,/)!<)! | %190
!>(! (_B,/E/A/e/) (e/A/E/B,/) (B,/E/A/e/) (e/A/E/B,/)!>)! |!p! (!/-!A2 F2 !/-!A2 F2 | %192
 !/-!A3 F3) (!//-!G _E) | (!/-!A2 F2 !/-!A2 F2 | !/-!A3 F3) (!//-!G _E) | (!/-!A2 F2 !/-!A2 F2 | %196
 !/-!A2 F2 !/-!A2 F2) |!p! =B,8- |!>(! B,8- | B,8!>)! |!pp! =B,8- | B,8- |!<(! B,4 (^C2 =B,2)!<)! | %203
!mp! (^D2 ^CD) (^A,2 ^G,2) | (^D^C)(CD) (^A,2 ^G,2) |!mf! (^D4!>(! ^C4) | ^C8 | =B,8!>)! | %208
!pp!!<(! [A,A]4-!<)!!>(! [A,A]([G,G]- (3[G,G]!tenuto![A,A]!tenuto![B,B])!>)! | %209
!<(! [A,A]4-!<)!!>(! [A,A]([G,G]- (3[G,G]!tenuto![A,A]!tenuto![B,B])!>)! |!>(! [A,A]6!>)! z2 | %211
!pp! !>![Df]8 |!ppp! [Af]8 |] %213
V:4
 x8 | x8 | x8 | x8 | x8 | x8 | x8 | x8 | x8 | x8 | x8 | x8 | x8 | x8 | x8 | x8 | x4 (E2 D2) | x8 | %18
 x8 | x8 | x8 | x8 | x8 | x8 | x8 | x8 | x8 | x8 | x8 | x8 | x8 | x8 | x8 | x8 | x8 | x8 | x8 | %37
 x8 | x8 | x8 | x8 | x8 | x8 | x8 | x8 | x8 | x8 | x8 | x8 | x8 | x8 | x8 | x8 | x2 AA AAAA | x8 | %55
 x8 | x8 | x8 | x8 | x8 | x8 | x8 | x8 | x8 | x8 | x8 | x8 | x8 | x8 | x8 | x8 | x8 | x8 | x8 | %74
 x8 | x8 | x8 | x8 | x8 | x8 | x8 | x8 | x8 | x8 | x8 | x8 | x8 | x8 | x8 | x8 | x8 | x8 | x8 | %93
 x8 | x8 | x8 | x8 | x8 | x8 | x8 | x8 | x8 | x8 | x8 | x8 | x8 | x8 | x8 | x8 | x8 | x8 | x8 | %112
 x8 | x8 | x8 | x8 | x8 | x8 | x8 | x8 | x8 | x8 | x8 | x8 | x8 | x8 | x8 | x8 | x8 | x8 | x8 | %131
 x8 | x8 | x8 | x8 | x8 | x8 | x8 |!8va(! x8 | x8!8va)! | x8 |!8va(! x8!8va)! | x8 | x8 | %144
 x4 (E2 D2) | x8 | x8 | x8 | x8 | x8 | x8 | x8 | x8 | x8 | x8 | x8 | x8 | x8 | x8 | x8 | x8 | x8 | %162
 x8 | x8 | x8 | x8 | x8 | x8 | x8 | x8 | x8 | x8 | x8 | x8 | x8 | x8 | x8 | x8 | x8 | x8 | x8 | %181
 x8 | x2 AA AAAA | x8 | x8 | x8 | x8 | x8 | x8 | x8 | x8 | x8 | x8 | x8 | x8 | x8 | x8 | x8 | x8 | %199
 x8 | x8 | x8 | x8 | x8 | x8 | x8 | x8 | x8 | x8 | x8 | x8 | x8 | x8 |] %213
V:5
!p! (C,4 G,2 F,2) |!<(! B,8 | (D4 F2 B2)!<)! |!>(! B8!>)! |!pp! (_d_A) G2 (A2 G2) | %5
 (F2 _E2 _D2) (B,2- |!<(! B,2 _A,2 F,2 _E,2)!<)! |!>(! (!courtesy!=D,2 C,2 D,2 G,2)!>)! | %8
!pp!"^soutenu"!<(! F4 ^G4-!<)! |!>(! G4 (A2 ^c2)!>)! |!<(! F4 ^G4-!<)! |!>(! G4 (A2 ^c2)!>)! | %12
!p!!<(! !tenuto!F4 !tenuto!^G4 | !tenuto!F4 !tenuto!^G4!<)! |!f!!>(! !tenuto!F4 !tenuto!^G4 | %15
 !tenuto!F4 !tenuto!!courtesy!_B,4!>)! |!p!"^express."!<(! (A,2 G,A,) (!>!G,2 F,2) | B,8!<)! | z8 | %19
 z2!p!"^express."!>(! (!tenuto!.B4 !tenuto!.B2)!>)! |!p! A4 !tenuto![=B,F]4- | %21
 [B,F]2 z2 !tenuto![=B,F]4- | [B,F]2 z2 !tenuto![=B,F]4 | %23
!pp!"^léger""^léger""^léger" !/!E,!/!G,!/!!courtesy!_B,!/!^C !/!B,!/!C!/!E!/!G | %24
 !/![FA]!/!D!/!A,!/!F, !/!E,!/!G,!/!B,!/!^C | !/!B,!/!^C!/!E!/!G !/![FA]!/!D!/!A,!/!F, | %26
 !/!_A,!/!C!/!F!/!C !/!C!/!^D!/!^F!/!A |"_expressif et en dehors"!p! ((c3 =B)) (c3 ^G) | %28
 (^GAcf)!p! [^G,Dc]/c/!/!=B !/!G!/!G, | (^F,/^G,/F,/E,/) (E,/F,/E,/D,/)!<(! !//!=F,3 !/!C!<)! | %30
!mf!!<(! =B,4!<)!!>(! E,4!>)! |!mf! !/!D,!/!^E,!/!E,!/!^G, !/!G,!/!=B,!/!B,!/!D | %32
!p!!<(! ^E4!<)!!>(! ^D4!>)! |!p!!>(! !/!=B,!/!=D!/!D!/!^E !/!E!/!^G!/!G!/!=B!>)! | %34
!pp! [^G,^G]4 [=G,=G]4 | [^G,^G]4 [=G,=G]4 |!<(! !///!^G4 !///!=B2 !///!^A2 | %37
 !///!^c4 !///!e4!<)! |!ff! [^C=Be]2 z2 z4 | z4 z2!mf!!<(! (uG,/A,/G,/A,/)!<)! | %40
!>(! (v!courtesy!_B,/C/B,/C/ B,/C/B,/C/ B,/C/B,/A,/)!>)!!<(! (G,/A,/G,/A,/)!<)! | %41
!>(! (B,/C/B,/C/ B,/C/B,/C/ B,/C/B,/A,/)!>)!!<(! (G,/A,/G,/A,/)!<)! | %42
!>(! (B,/C/B,/C/ B,/C/B,/A,/) (G,/A,/G,/A,/ G,/A,/G,/A,/)!>)! |!p!!>(! E,4!>)! z4 | z8 | %45
!mp! (E2 D2 =B,2 D2 | E2) z2 z4 |!p! (e2 d2 =B2 d2) | (e2 d2 =B2 d2) | %49
 e2 z2 z2!>(! (!courtesy!_B2!>)! | !courtesy!=E2) z2 z2!>(! (B2!>)! | E2) z2 z2!>(! (B2!>)! | %52
 E2) z2 z4 | z8 |!pp!"_très expr." (A,2 E4) (3(DEF) | (E2 DC) (B,2 CD) | E6 (3(DEF) | %57
 (E2 DC) (B,2 CD) | D4- D(B,CD) | (D2 B,A,) (!tenuto!F,2 !tenuto!G,2) | A,4- A,!<(!(F,G,A,)!<)! | %61
!>(! (A,6 F,2)!>)! |!p! (!/-!A2 F2) (!/-!A2 F2) | (!/-!A3 F3) (!//-!G E) | %64
!pp!"_express." (!>!e6 d2 | c2) (A4 G2) |!>(! (!/-!A2 F2) (!/-!A2 F2) | %67
 (!/-!A2 F2) (!/-!A2 F2)!>)! |"_soutenu"!mf! F,6 _E,2 | F,6 _E,2 | F,4 (G,2 A,2) | F,6 _E,2 | %72
 F,4!>(! (D2 F,2)!>)! | _E,6 D,2 | _E,6 D,2 |!<(! _E,4 (F,2 E,2)!<)! |!mf! (B2 _AB) (F2 _E2) | %77
 (B_A)(AB) (F2 _E2) |!>(! (B4 _D4)!>)! |!pp! ([^G,=E]2 [A,^F]2 [=B,^G]2 [A,F]2) | %80
!<(! ([^G,E]2 [A,^F]2 [=B,^G]2 [A,F]2) | ([^G,E]2 [A,^F]2 [=B,^G]2!<)! [A,F]2) | %82
!>(! [^G,E]4 ([A,E]2 [G,E]2)!>)! | %83
!ppp!!<(! (D,/=F,/D,/F,/) (F,/A,/F,/A,/) (A,/C/A,/C/) (C/D/C/D/)!<)! | %84
 A/ z/ z z2 z2!pp!"^sur la touche""_express." (c2- | c2 A2 G2 F2) | (E2 DE) (FG) A2 | (!>!c6 A2) | %88
!<(! (!>!c6 A2)!<)! |!>(! (c2 d2-) (3d2 (!tenuto!c2 !tenuto!d2)!>)! |!ppp! _e2- e z z4 | %91
!p!!>(! !/!_C!/!_E!/!E!/!_A!>)!!ppp! !/!_c!/!A!/!F!/!A | !/!_c!/!_A!/!F!/!A !/!c!/!A!/!F!/!A | %93
 !/!_c!/!_A!/!F!/!A !/!c!/!A!/!F!/!A | !/!_c!/!_A!/!F!/!A !/!c!/!A!/!F!/!A | %95
!<(! !/!_c!/!_A!/!F!/!_E !/!_C!/!E!/!C!/!_A,!<)! | %96
!>(! !/!_A,!/!_C!/!A,!/!F, !/!A,!/!C!/!A,!/!F,!>)! | %97
!pp!!<(! (_E,/F,/E,/F,/)!<)!!>(! (_G,/_A,/G,/F,/)!>)!"^simile" (E,/F,/E,/F,/) (G,/A,/G,/F,/) | %98
 (_E,/F,/E,/F,/) (_G,/_A,/G,/F,/) (E,/F,/E,/F,/) (G,/A,/G,/F,/) | %99
 (_E,/F,/E,/F,/) (_G,/_A,/G,/F,/) (E,/F,/E,/F,/) (G,/A,/G,/F,/) | %100
!<(! (_E,/F,/E,/F,/)!<)!!>(! (_G,/_A,/G,/F,/) (!/-!E,2 F,2)!>)! | _E, z!p!"_expressif." u^D2 ^F4- | %102
 F2 (3(^E^F^G) ^F4- |!<(! F2 (3(^E^F^G) F2 (A2-!<)! |!>(! A2 ^F2) (^E2 ^D2)!>)! | z8 | %106
 z4!mp!"^pizz."!<(! [^D,=C^FA]2 z2 | ^C2 z2!<)!!>(! [^D,A,=DA]2 z2 | %108
 ^C2!>)! z2 z!p!"^arco"!<(! (3(A,/^D/A/)!<)!!>(! (3(A/D/A,/)!>)!A, | z2!p!!<(! A2 !courtesy!=c4- | %110
 c2 (3(=Bcd) c2 (3(Bcd) |[K:treble] _e2 (3(def) e2 (3(def)!<)! | %112
 ^f z z2[K:alto]!<(! (!///-!^c A) (!///-!^d A)!<)! | %113
!p!"_subito" !///!A2 !///!^G2 !///!=G2 !///!^F2 | !///!_B2 !///!A2 !///!^G2 !///!A2 | %115
 !///!_B2 !///!A2 !///!^G2 !///!A2 | !///!_B2 !///!A2 !///!^G2 !///!A2 | %117
!ff!!<(! !///!_B2 !///!A2 !///!^G2 !///!A2!<)! |[K:treble]!fff!{/A} a2 (ga) d2 (cd) | %119
[K:alto] A2 (GA) D2 (CD) | A,2 G,A,!f!!<(! !///![E,^A,]4!<)! |!>(! !///![E,^A,]8!>)! | %122
!<(! !///![E,^A,]8!<)! |!>(! !///![E,^A,]8!>)! | !///![E,^A,]8 |!mf! !///!!>![E,^A,]8 | %126
!mp! (!///-!E,4 ^A,4) | (!///-!E,4 ^A,4) |!pp! (E,2 D,2) (G,2 F,2) |!<(! B,8 | D4 (F2 B2) | %131
 (B6!<)!!>(! A2)!>)! |!pp! (G2 ^F2 G2 F2) | (E2 D2 C2 A,2) |!<(! (A,2 G,2 E,2 D,2)!<)! | %135
!>(! (^C,2 ^F,E,) (C,2 F,2)!>)! |!pp!!<(! (_E2 F2) (_G2 _A2)!<)! |!>(! (=A4 _A2) _G2!>)! | %138
!<(! (_E2 F2) (_G2 _A2)!<)! |!>(! (=A4 _A2) _G2!>)! |!p!!<(! _E4 (_G2 _A2) | _E4 (_G2 _A2)!<)! | %142
!mf!!>(! _E4 F4 | ^F4 (A2 G2)!>)! |!pp!"_expr." (A,2 G,A,)!<(! (G,2 F,2) | B,8!<)! | z8 | %147
 z2!p!"^express."!>(! (!tenuto!.B4 !tenuto!.B2)!>)! |!p! A4 !tenuto![=B,F]4- | %149
 [B,F]2 z2 !tenuto![=B,F]4- | [B,F]2 z2 !tenuto![=B,F]4 | %151
!pp!"_léger" !/!E,!/!G,!/!_B,!/!^C !/!B,!/!C!/!E!/!G | !/![FA]!/!D!/!A,!/!F, !/!E,!/!G,!/!B,!/!^C | %153
 !/!B,!/!^C!/!E!/!G !/![FA]!/!D!/!A,!/!F, | !/!^G,!/!D,!/!A,!/!D !/!C!/!E!/!E!/!A | %155
!pp! (c3 !courtesy!_B) (c3 B) | (G_Acf)!p! [G,Fc]/c/!/!G !//!G,2 | %157
 _F,/_G,/F,/_E,/ E,/F,/E,/_D,/!<(! !//!E,2 !/!F,!/!_A,!<)! |!mf!!<(! B,4!<)!!>(! _E,4!>)! | %159
!>(! !/!_D,!/!=E,!/!E,!/!=G, !/!G,!/!B,!/!B,!/!_D!>)! |!p!!<(! =E4!<)!!>(! =D4!>)! | %161
!p!!>(! !/!B,!/!_D!/!D!/!=E !/!E!/!G!/!G!/!B!>)! |!pp! F,4 _G,4 | F4 _G4 |!<(! !///!_c4 !///!c4 | %165
 !///!_B2 !///!_c2 !///!_e2 !///!=e2!<)! |!ff! [_Af]2 z2 z4 | %167
"^pizz."!f! [F=B]2 z2 z2"^arco"!<(! (u_B,/C/B,/C/)!<)! | %168
!>(! (v_D/_E/D/E/ D/E/D/E/ D/E/D/C/)!>)!!<(! (B,/C/B,/C/)!<)! | %169
!>(! (_D/_E/D/E/ D/E/D/E/ D/E/D/C/)!>)!!<(! (B,/C/B,/C/)!<)! | %170
!>(! (_D/_E/D/E/ D/E/D/C/) (B,/C/B,/C/ B,/C/B,/C/)!>)! |!p! G,4 z4 | z8 |!mp! (G,2 _A,2 B,2 A,2 | %174
 G,2) z2 z4 |!pp! (g2 f2 d2 f2) | (g2 f2 d2 f2) | (g2 f2 d2 ^c2) |!<(! (G2 F2 D2 ^C2)!<)! | %179
!p!"_sub." !tenuto![B,D]6 !>!^C2 | [B,D]6 !>!^C2 |!<(! (!tenuto![B,D]4!<)!!>(! !tenuto![CE]4) | %182
 (!tenuto![B,D]2 !tenuto![CE]2)!>)! z4 |!pp! (A,2 E4) (3(DEF) | (E2 DC) (B,2 CD) | E6 (3(DEF) | %186
 (E2 DC) (B,2 CD) | D4- D(B,CD) | (D2 B,A,) (!tenuto!F,2 !tenuto!G,2) | A,4- A,!<(!(F,G,A,)!<)! | %190
 A,4 z4 |!p! (C2 _E4) (3(DEF) | (_E2 DC) (B,2 CD) | _E6 (3(DEF) | (_E2 DC) (B,2 CD) | _E6 (3(DEF) | %196
 _E6 (3(DEF) |!p! _E6 (3(DEF) |!>(! _E6 (3(DEF) | _E6 (3(DEF)!>)! |!pp! _E6 (3(DEF) | _E6 (3(DEF) | %202
!<(! ^D4 (^E2 D2)!<)! |!mp! ^A6 ^G2 | ^A6 ^G2 |!mf! (^A4!>(! ^G4) | ^F4 (^G2 F2) | %207
 =F4!>)! (=G2 F2) |!pp!!<(! (=B, C3)!<)!!>(! _D4!>)! |!<(! C4!<)!!>(! _D4!>)! |!>(! C6!>)! z2 | %211
 z4!p!!>(! =B,FAd!>)! |!ppp! f2 [A,F]2 z2 [A,F]2 |] %213
V:6
 x8 | x8 | x8 | x8 | x8 | x8 | x8 | x8 | x8 | x8 | x8 | x8 | x8 | x8 | x8 | x8 | x8 | x8 | x8 | %19
 x8 | x8 | x8 | x8 | x8 | x8 | x8 | x8 | [^G,D]2 x6 | x8 | x8 | x8 | x8 | x8 | x8 | x8 | x8 | x8 | %37
 x8 | x8 | x8 | x8 | x8 | x8 | x8 | x8 | x8 | x8 | x8 | x8 | x8 | x8 | x8 | x8 | x8 | x8 | x8 | %56
 x8 | x8 | x8 | x8 | x8 | x8 | x8 | x8 | x8 | x8 | x8 | x8 | x8 | x8 | x8 | x8 | x8 | x8 | x8 | %75
 x8 | x8 | x8 | x8 | x8 | x8 | x8 | x8 | x8 | x8 | x8 | x8 | x8 | x8 | x8 | x8 | x8 | x8 | x8 | %94
 x8 | x8 | x8 | x8 | x8 | x8 | x8 | x8 | x8 | x8 | x8 | x8 | x8 | x8 | x8 | x8 | x8 | %111
[K:treble] x8 | x4[K:alto] x4 | x8 | x8 | x8 | x8 | x8 |[K:treble] x8 |[K:alto] x8 | x8 | x8 | x8 | %123
 x8 | x8 | x8 | x8 | x8 | x8 | x8 | x8 | x8 | x8 | x8 | x8 | x8 | x8 | x8 | x8 | x8 | x8 | x8 | %142
 x8 | x8 | x8 | x8 | x8 | x8 | x8 | x8 | x8 | x8 | x8 | x8 | x8 | [=G,F]2 x6 | x8 | x8 | x8 | x8 | %160
 x8 | x8 | x8 | x8 | x8 | x8 | x8 | [G,G,]2 x6 | x8 | x8 | x8 | x8 | x8 | C,8- | C,2 x6 | x8 | x8 | %177
 x8 | x8 | x8 | x8 | x8 | x8 | x8 | x8 | x8 | x8 | x8 | x8 | x8 | x8 | x8 | x8 | x8 | x8 | x8 | %196
 x8 | x8 | x8 | x8 | x8 | x8 | x8 | x8 | x8 | x8 | x8 | x8 | x8 | x8 | x8 | x8 | x8 |] %213
V:7
!p! (F,,2 G,,2 A,,2 B,,2) | (C,2 D,2!<(! E,2 F,2) | (G,2 A,2 B,2 C2) | (D2!<)!!>(! E2 F2 E2)!>)! | %4
!pp! (_E4 _D4) | (C2 B,2) _A,2 (F,2- |!<(! F,2 _E,2 C,2 _A,,2)!<)! |!>(! (_A,,4 G,,4)!>)! | %8
!pp!"_soutenu"!<(! !tenuto![G,,D,]4 !tenuto![!courtesy!_B,,F,]4!<)! | %9
!>(! !tenuto!D,6 [B,,F,]2!>)! |!<(! [G,,D,]4 [B,,F,]4!<)! |!>(! D,6 [B,,F,]2!>)! | %12
!p!!<(! !tenuto![G,,D,]4 !tenuto!B,,4 | !tenuto![G,,D,]4 !tenuto!B,,4!<)! | %14
!f!!>(! !tenuto![G,,D,]4 !tenuto!B,,4 | !tenuto![G,,D,]4 !tenuto!C,4!>)! | %16
!p!!<(! (F,,4 A,,2 B,,2) | (C,2 D,2 E,2 F,2)!<)! |!mf!!>(! (G,2 A,2 B,2 C2) | (D2 E2 F2 G2!>)! | %20
!p! !open!A2) z2 z4 |!mp!"^pizz." G,,2 z2 z4 | z4!p! G,,2 z2 |!pp!"^arco" (C,,6 C,2) | %24
 (C2 C,2) (C,,4- | C,,2 C,2) (C2 C,2) | (D,4 ^D,4) |!pp! E,,2 (E,4 E,2- | E,2) E,,4!p! E,2- | %29
 E,2 E,,2!<(! (C,/D,/C,/=B,,/) (A,,/B,,/A,,/G,,/)!<)! |!mf!!<(! ^E,,4!<)!!>(! ^F,,4!>)! | %31
 ^E,,2 z2 z4 |!p!!<(! ^G,4!<)!!>(! A,4!>)! | ^G,2 z2 z4 |!pp! ^C,,4 E,,4 | ^C,4 E,4 | %36
[K:tenor]!<(! !///!^C2 !///!^D2 !///!E2 !///!^F2 | !///!=G2 !///!A2 !///!^A2 !///!^B2!<)! | %38
!ff! ^c2 z2 z4 |[K:bass] z4 z2!mf!!<(! u^C,2!<)! |!>(! vE,2!>)! z2 z2!<(! ^C,2!<)! | %41
!>(! E,2!>)! z2 z2!<(! ^C,2!<)! |!>(! ((E,4 _E,4))!>)! |!p!!>(! (!/-!G,,2 A,,2 !/-!G,,2 A,,2!>)! | %44
 G,,)(A,,^C,D, E,F,G,^G,) |!mp! !>!A,8- | A,!>(!(B,^CD[K:tenor] EFG^G)!>)! |!p! (A2 G2 E2 G2) | %48
 (A2 G2 E2 G2) | A2 z2 z2[K:bass]!>(! (_E2!>)! | A,2) z2 z2!>(! (_E2!>)! | %51
 A,2) z2 z2!>(! (_E2!>)! | A,2) z2 z4 | z8 | z2!pp!"^pizz." A,,2 D,,2 z2 | z8 | z2 A,,2 D,,2 z2 | %57
 z8 | z2 B,,2 _E,,2 z2 | z8 | z2 D,2 G,,2 z2 | z2 A,2 A,,2 z2 | z2!p! A,,2 D,,2 z2 | %63
 z4 [G,,D,]2 z2 | z2!pp! A,,2 D,,2 z2 | z4 [G,,D,]2 z2 | z2 A,,2 D,,2 z2 | z8 |!mf!"^arco" B,,8- | %69
 B,,8- | B,,8 | B,,8- |!>(! B,,8!>)! |!p! _A,,8- | A,,8- |!<(! A,,8!<)! |!mf! [_G,,_D,]8- | %77
 [G,,D,]8- |!>(! [G,,D,]8!>)! |!pp! [=E,,=B,,]8- |!<(! [E,,B,,]8- | [E,,B,,]8-!<)! | %82
!>(! [E,,B,,]8!>)! |!ppp! [D,,A,,]2 z2 z4 | z8 | z8 | z8 | z8 | z8 | z8 | %90
!ppp!"^pizz." [F,,_C,_A,]2 z2 z4 | z4 z2!pp!"^arco" (_E2- | E2 _C2 B,2 _A,2) | %93
 (G,2 F,G,) (_A,B, _C2) | (_E6 _C2) |!<(! (_E6 _C2)!<)! | %96
!>(! (_E2 F2-) (3F2 (!tenuto!E2 !tenuto!F2!>)! | _G6) z2 |"^pizz." F,,2 z2 z4 | F,,2 z2 z4 | %100
 F,,2 z2 z4 |!p! ^D,,2 z2 z4 | ^D,,2 z2 z4 | z8 |!mf! ^D,,2 z2 z4 | %105
"^arco"!<(! (3(^D,,/=B,,/^F,/)!<)!F, z!>(! (3(F,/B,,/D,,/)!>)! D,, z!pp! u^D2 | ^F6 (3(^EF^G) | %107
 ^F2 (A4 F2) |!>(! (^E2 ^D2)!>)! (3(^D,,/=B,,/^F,/)F, z!>(! (3(F,/B,,/D,,/)!>)! | (^D,,4 ^E,,4 | %110
 ^F,,4 ^G,,4 | A,,4 =B,,4) | (C,2 D,2 !courtesy!_E,2 F,2) |!p!"_subito" (^F,2 ^G,2 A,2 =B,2) | %114
 !///!C2 !///!D2 !///!_E2 !///!D2 | !///!C2 !///!D2 !///!_E2 !///!D2 | %116
 !///!C2 !///!D2 !///!_E2 !///!D2 |!ff!!<(! !///!C2 !///!D2 !///!_E2 !///!D2!<)! | %118
!fff! ([^F,,^C,]/[C,^A,]/)([C,A,]/[F,,C,]/) ([F,,C,]/[C,A,]/)([C,A,]/[F,,C,]/) ([F,,=C,]/[C,A,]/)([C,A,]/[F,,C,]/) ([F,,C,]/[C,A,]/)([C,A,]/[F,,C,]/) | %119
 ([^F,,^C,]/[C,^A,]/)([C,A,]/[F,,C,]/) ([F,,C,]/[C,A,]/)([C,A,]/[F,,C,]/) ([F,,=C,]/[C,A,]/)([C,A,]/[F,,C,]/) ([F,,C,]/[C,A,]/)([C,A,]/[F,,C,]/) | %120
 ([^F,,^C,]/[C,^A,]/)([C,A,]/[F,,C,]/) ([F,,C,]/[C,A,]/)([C,A,]/[F,,C,]/)!f!!<(! (F,,4-!<)! | %121
!>(! F,,2 G,,2 C,,2) z2!>)! |!<(! (^F,,8-!<)! |!>(! F,,2 G,,2!>)! C,,4) | z8 |!mf! !>!^F,,8- | %126
!mp! F,,8- |!>(! F,,8!>)! |!pp! (=F,,2 G,,2 A,,2 B,,2) | (C,2 D,2!<(! E,2 F,2) | (G,2 A,2 B,2 C2) | %131
 (D2 E2!<)!!>(! F2 E2)!>)! |!pp! (D4 C4) | (=B,2 A,2 G,2 E,2) |!<(! (E,2 D,2 =B,,2 G,,2)!<)! | %135
!>(! (G,,4 ^F,,4)!>)! |!pp!!<(! (=F,,4 _A,,4)!<)! |!>(! (=B,,4 _A,,4)!>)! |!<(! (F,,4 _A,,4)!<)! | %139
!>(! (=B,,4 _A,,4)!>)! |!p!!<(! (F,,4 _A,,4) | (F,,4 _A,,4)!<)! |!mf!!>(! =B,,8 | C,8!>)! | %144
!pp! F,,4!<(! A,,2 B,,2 | (C,2 D,2 E,2 F,2)!<)! |!mf! (G,2 A,2 B,2 C2) |!>(! (D2 E2 F2 G2!>)! | %148
 !open!A2) z2 z4 |!mp!"^pizz." G,,2 z2 z4 | z4!p! G,,2 z2 |!pp!"^arco" (C,,6 C,2) | %152
 (C2 C,2) (C,,4- | C,,2 C,2) (C2 C,2) | (F,,4 E,,4) |!pp! (_E,,2 _E,2 _D2) (E,2- | %156
 E,2 _E,,4)!p! (_E,2- | E,2 _E,,2)!<(! (C,/B,,/_A,,/G,,/) (G,,/A,,/G,,/F,,/)!<)! | %158
!mf!!<(! =E,,4!<)!!>(! F,,4!>)! | =E,,2 z2 z4 |!p!!<(! G,4!<)!!>(! _A,4!>)! | G,2 z2 z4 | %162
!pp! _D,,4 _A,,4 | _D,4 _A,4 |[K:tenor]!<(! !///!_D2 !///!_E2 !///!=E2 !///!F2 | %165
 !///!E2 !///!F2 !///!_G2 !///!=G2!<)! |!ff! [_D_A]2 z2 z4 |[K:bass] z4 z2!<(! uE,2!<)! | %168
!>(! vG,2!>)! z2 z2!<(! E,2!<)! |!>(! G,2!>)! z2 z2!<(! E,2!<)! |!mf!!>(! !>!G,8!>)! | %171
!p!!>(! (!/-!C,2 _D,2 !/-!C,2 D,2!>)! |!pp!!<(! C,)(_D,=E,F, G,_A,B,=B,)!<)! | %173
[K:tenor]!mp! (C2 _D2 _E2 D2 |!>(! C)(_D=EF G_AB=B)!>)! |!pp! (c2 _B2 G2 B2) | (c2 B2 G2 B2) | %177
 (c2 B2 G2 F2) |[K:bass]!<(! (C2 B,2 G,2 F,2)!<)! |!p!"_sub." [G,,D,]2 z2 C,,2 z2 | %180
 [G,,D,]2 z2 C,,2 z2 | [G,,D,]2 z2 !>!C,,2 z2 | z8 | z2!pp! C,2 F,,2 z2 | z8 | z2 C,2 F,,2 z2 | %186
 z8 | z2 B,,2 _E,,2 z2 | z8 | z2 D,2 G,,2 z2 | z2 C,2 C,,2 z2 | z2 C,2 F,,2 z2 | z4 [G,,D,]2 z2 | %193
 z2 C,2 F,,2 z2 | z4 [G,,D,]2 z2 | z2 C,2 F,,2 z2 | z8 |!p!"^arco" ^C,8- |!>(! C,8- | C,8!>)! | %200
!pp! ^C,8- | C,8- |!<(! C,8!<)! |!mp! (^F,6 ^E,2) | (^F,6 ^E,2) |!mf! (^F,4!>(! ^E,4) | [A,,=E,]8 | %207
 [G,,D,]8!>)! |!pp!!<(! [F,,C,]4!<)!!>(! [_E,,_B,,]4!>)! |!<(! [F,,C,]4!<)!!>(! [_E,,B,,]4!>)! | %210
!>(! [F,,C,]6!>)! z2 | z!p!!<(! G,,D,A,!<)! z4 | z2!ppp! [F,,C,]2 z2 [F,,C,]2 |] %213
V:8
 x8 | x8 | x8 | x8 | x8 | x8 | x8 | x8 | x8 | x8 | x8 | x8 | x8 | x8 | x8 | x8 | x8 | x8 | x8 | %19
 x8 | x8 | x8 | x8 | x8 | x8 | x8 | x8 | x8 | x8 | x8 | x8 | x8 | x8 | x8 | x8 | x8 |[K:tenor] x8 | %37
 x8 | x8 |[K:bass] x8 | x8 | x8 | x8 | x8 | x8 | x8 | x4[K:tenor] x4 | x8 | x8 | x6[K:bass] x2 | %50
 x8 | x8 | x8 | x8 | x8 | x8 | x8 | x8 | x8 | x8 | x8 | x8 | x8 | x8 | x8 | x8 | x8 | x8 | x8 | %69
 x8 | x8 | x8 | x8 | x8 | x8 | x8 | x8 | x8 | x8 | x8 | x8 | x8 | x8 | x8 | x8 | x8 | x8 | x8 | %88
 x8 | x8 | x8 | x8 | x8 | x8 | x8 | x8 | x8 | x8 | x8 | x8 | x8 | x8 | x8 | x8 | x8 | x8 | x8 | %107
 x8 | x8 | x8 | x8 | x8 | x8 | x8 | x8 | x8 | x8 | x8 | x8 | x8 | x8 | x8 | x8 | x8 | x8 | x8 | %126
 x8 | x8 | x8 | x8 | x8 | x8 | x8 | x8 | x8 | x8 | x8 | x8 | x8 | x8 | x8 | x8 | x8 | x8 | x8 | %145
 x8 | x8 | x8 | x8 | x8 | x8 | x8 | x8 | x8 | x8 | x8 | x8 | x8 | x8 | x8 | x8 | x8 | x8 | x8 | %164
[K:tenor] x8 | x8 | x8 |[K:bass] x8 | x8 | x8 | x8 | x8 | x8 |[K:tenor] x8 | x8 | x8 | x8 | x8 | %178
[K:bass] x8 | x8 | x8 | x8 | x8 | x8 | x8 | x8 | x8 | x8 | x8 | x8 | x8 | x8 | x8 | x8 | x8 | x8 | %196
 x8 | x8 | x8 | x8 | x8 | x8 | x8 | =B,,8 | =B,,8 | =B,,8 | x8 | x8 | x8 | x8 | x8 | x8 | x8 |] %213

